svg/300/outlined/nest_doorbell_visitor.svg

<svg xmlns="http://www.w3.org/2000/svg" width="48" height="48" viewBox="0 -960 960 960"><path d="M727.188-260.001q-26.188 0-44.38-18.312-18.192-18.311-18.192-44.499 0-26.189 18.311-44.381t44.5-18.192q26.188 0 44.38 18.311 18.192 18.312 18.192 44.5t-18.311 44.38q-18.311 18.193-44.5 18.193Zm-142.572 170v-15.692q0-36.221 38.961-57.957 38.962-21.735 103.73-21.735 64.769 0 103.731 21.735 38.961 21.736 38.961 57.957v15.692H584.616ZM669.999-480h-45.383v-200q0-61.923-43.039-103.269Q538.539-824.616 480-824.616t-101.577 41.597Q335.384-741.423 335.384-680v400q0 58.539 43.039 101.577Q421.461-135.384 480-135.384v45.383q-80.384 0-135.192-54.807Q290.001-199.616 290.001-280v-400q0-80.384 54.807-135.192Q399.616-869.999 480-869.999q80.384 0 135.192 54.807Q669.999-760.384 669.999-680v200ZM480-562.308q32.048 0 54.87-22.822 22.822-22.822 22.822-54.87t-22.822-54.87q-22.822-22.822-54.87-22.822t-54.87 22.822q-22.822 22.822-22.822 54.87t22.822 54.87q22.822 22.822 54.87 22.822ZM480-480Zm-77.692 160q0 32.048 22.822 54.87 22.822 22.822 54.87 22.822t54.87-22.822q22.822-22.822 22.822-54.87t-22.822-54.87q-22.822-22.822-54.87-22.822t-54.87 22.822q-22.822 22.822-22.822 54.87ZM480-274.231q-20.769 0-33.269-14.309-12.5-14.31-12.5-31.481 0-17.316 12.407-31.724 12.407-14.409 33.176-14.409 20.77 0 33.555 12.708t12.785 33.502q0 17.329-12.692 31.521-12.693 14.192-33.462 14.192Z"/></svg>

<svg xmlns="http://www.w3.org/2000/svg" width="48" height="48" viewBox="0 -960 960 960"><path d="M727.19-260q-26.19 0-44.38-18.31t-18.19-44.5q0-26.19 18.31-44.38 18.31-18.2 44.5-18.2 26.18 0 44.38 18.32Q790-348.76 790-322.57q0 26.18-18.31 44.38Q753.38-260 727.19-260ZM584.62-90v-15.69q0-36.22 38.96-57.96 38.96-21.74 103.73-21.74 64.77 0 103.73 21.74Q870-141.91 870-105.69V-90H584.62ZM670-480h-45.38v-200q0-61.92-43.04-103.27-43.04-41.35-101.58-41.35t-101.58 41.6q-43.04 41.6-43.04 103.02v400q0 58.54 43.04 101.58T480-135.38V-90q-80.38 0-135.19-54.81T290-280v-400q0-80.38 54.81-135.19T480-870q80.38 0 135.19 54.81T670-680v200Zm-190-82.31q32.05 0 54.87-22.82T557.69-640q0-32.05-22.82-54.87T480-717.69q-32.05 0-54.87 22.82T402.31-640q0 32.05 22.82 54.87T480-562.31Zm0 82.31Zm-77.69 160q0 32.05 22.82 54.87T480-242.31q32.05 0 54.87-22.82T557.69-320q0-32.05-22.82-54.87T480-397.69q-32.05 0-54.87 22.82T402.31-320ZM480-274.23q-20.77 0-33.27-14.31-12.5-14.31-12.5-31.48 0-17.32 12.41-31.73 12.41-14.4 33.17-14.4 20.77 0 33.56 12.7 12.78 12.71 12.78 33.51 0 17.32-12.69 31.52-12.69 14.19-33.46 14.19Z"/></svg>
